storage/app/icons/phosphoricons/regular/square-half.svg

<svg xmlns="http://www.w3.org/2000/svg" fill="currentColor" viewBox="0 0 256 256"><path d="M200 40H56a16 16 0 0 0-16 16v144a16 16 0 0 0 16 16h144a16 16 0 0 0 16-16V56a16 16 0 0 0-16-16m-64 80h64v16h-64Zm0-16V88h64v16Zm0 48h64v16h-64Zm64-80h-64V56h64ZM56 56h64v144H56Zm144 144h-64v-16h64z"/></svg>

<svg xmlns="http://www.w3.org/2000/svg" viewBox="0 0 256 256" fill="currentColor"><path d="M200,40H56A16,16,0,0,0,40,56V200a16,16,0,0,0,16,16H200a16,16,0,0,0,16-16V56A16,16,0,0,0,200,40Zm-64,80h64v16H136Zm0-16V88h64v16Zm0,48h64v16H136Zm64-80H136V56h64ZM56,56h64V200H56ZM200,200H136V184h64v16Z"/></svg>
